app/assets/images/logo.svg

<svg width="61px" height="16px" viewBox="0 0 61 16" version="1.1" xmlns="http://www.w3.org/2000/svg" xmlns:xlink="http://www.w3.org/1999/xlink">
    <g id="Page-1" stroke="none" stroke-width="1" fill="none" fill-rule="evenodd">
        <g id="Save-Desktop" transform="translate(-171.000000, -33.000000)" fill="#FFFFFF">
            <g id="Nav" transform="translate(171.000000, 31.000000)">
                <g id="logo" transform="translate(0.000000, 2.000000)">
                    <path d="M12.123625,11.3457875 C12.123625,14.4734125 9.415125,15.9244125 6.12625,15.9244125 C2.901875,15.9244125 0,14.0220375 0,10.4751625 L3.417875,10.4751625 C3.417875,12.4421625 4.643125,13.1514125 6.31975,13.1514125 C7.70625,13.1514125 8.77025,12.7000375 8.77025,11.4102875 C8.77025,9.9915375 7.25475,9.8949125 4.095,8.6695375 C1.999125,7.8635375 0.515875,7.0895375 0.515875,4.4779125 C0.515875,1.6404125 3.095375,0.1249125 6.1585,0.1249125 C9.350625,0.1249125 11.897875,2.2852875 11.897875,5.2194125 L8.480125,5.2194125 C8.480125,3.8007875 7.77075,2.8979125 6.06175,2.8979125 C4.86875,2.8979125 3.9015,3.4784125 3.9015,4.5422875 C3.9015,5.8321625 5.287875,5.9934125 8.028625,7.0572875 C10.1245,7.8635375 12.123625,8.6050375 12.123625,11.3457875" id="Fill-1"></path>
                    <path d="M25.847925,8.024625 C25.847925,5.445125 24.1068,3.252625 21.3983,3.252625 C18.7543,3.252625 17.013175,5.445125 17.013175,8.024625 C17.013175,10.60425 18.7543,12.79675 21.3983,12.79675 C24.1068,12.79675 25.847925,10.60425 25.847925,8.024625 L25.847925,8.024625 Z M29.36255,0.511875 L29.36255,15.5375 L25.847925,15.5375 L25.847925,13.506125 C24.912925,15.021625 22.94605,15.924375 21.2048,15.924375 C16.6263,15.924375 13.498675,12.280875 13.498675,8.024625 C13.498675,3.7685 16.6263,0.125 21.2048,0.125 C22.94605,0.125 24.912925,1.02775 25.847925,2.54325 L25.847925,0.511875 L29.36255,0.511875 Z" id="Fill-4"></path>
                    <polygon id="Fill-6" points="34.6350375 0.511925 38.7622875 10.507425 42.9539125 0.511925 46.7264125 0.511925 39.9230375 15.537425 37.5692875 15.537425 30.8625375 0.511925"></polygon>
                    <path d="M50.0878,6.4770125 L57.439425,6.4770125 C57.439425,4.3811375 55.9238,3.0591375 53.7958,3.0591375 C51.732175,3.0591375 50.0878,4.2521375 50.0878,6.4770125 L50.0878,6.4770125 Z M50.05555,9.0887625 C50.0878,11.2491375 51.151925,12.9901375 53.9893,12.9901375 C55.988425,12.9901375 56.73005,12.0873875 57.181425,11.0233875 L60.728175,11.0233875 C60.24455,13.6028875 57.8263,15.9243875 53.9893,15.9243875 C48.92705,15.9243875 46.476425,12.1196375 46.476425,8.0246375 C46.476425,3.5106375 49.1528,0.1250125 53.892425,0.1250125 C57.793925,0.1250125 60.857175,3.0591375 60.857175,6.8962625 C60.857175,7.4120125 60.857175,8.1213875 60.695925,9.0887625 L50.05555,9.0887625 Z" id="Fill-8"></path>
                </g>
            </g>
        </g>
    </g>
</svg>

<svg width="61" height="16" viewBox="0 0 61 16" xmlns="http://www.w3.org/2000/svg"><g fill="#fff"><path d="M12.124 11.346c0 3.128-2.709 4.579-5.997 4.579-3.224 0-6.126-1.902-6.126-5.449h3.418c0 1.967 1.225 2.676 2.902 2.676 1.386 0 2.451-.451 2.451-1.741 0-1.419-1.516-1.515-4.675-2.741-2.096-.806-3.579-1.58-3.579-4.192 0-2.838 2.58-4.353 5.643-4.353 3.192 0 5.739 2.16 5.739 5.095h-3.418c0-1.419-.709-2.321-2.418-2.321-1.193 0-2.16.581-2.16 1.644 0 1.29 1.386 1.451 4.127 2.515 2.096.806 4.095 1.548 4.095 4.288"/><path d="M25.848 8.025c0-2.58-1.741-4.772-4.45-4.772-2.644 0-4.385 2.192-4.385 4.772s1.741 4.772 4.385 4.772c2.709 0 4.45-2.192 4.45-4.772zm3.515-7.513v15.026h-3.515v-2.031c-.935 1.515-2.902 2.418-4.643 2.418-4.578 0-7.706-3.643-7.706-7.9 0-4.256 3.128-7.9 7.706-7.9 1.741 0 3.708.903 4.643 2.418v-2.031h3.515z"/><path d="M34.635.512l4.127 9.995 4.192-9.995h3.773l-6.803 15.026h-2.354l-6.707-15.026z"/><path d="M50.088 6.477h7.352c0-2.096-1.516-3.418-3.644-3.418-2.064 0-3.708 1.193-3.708 3.418zm-.032 2.612c.032 2.16 1.096 3.901 3.934 3.901 1.999 0 2.741-.903 3.192-1.967h3.547c-.484 2.579-2.902 4.901-6.739 4.901-5.062 0-7.513-3.805-7.513-7.9 0-4.514 2.676-7.9 7.416-7.9 3.901 0 6.965 2.934 6.965 6.771 0 .516 0 1.225-.161 2.192h-10.64z"/></g></svg>
